X:211127287224310
T:7-2-11-11-3-8-3-7-6-8-11-12-4-3-8-5
%%setfont-1 Courier-Bold 8
T:$1K.516f::104:22:165:61:146:133:134:91:25:155:31:92:73:18:89:170::$0
T:$1Perm. No.: 211127287224310$0
M:3/8
L:1/8
Q:1/8=111
%%staves [1 2]
V:1 clef=treble
V:2 clef=bass
K:C
%1
[V:1]|: e/d/e/g/c'/g/ |\
[V:2]|: C,2z |\
%2
[V:1] ecG   |\
[V:2] C,2z |\
%3
[V:1] (dBG) |\
[V:2] B,,2z |\
%4
[V:1] ce/c/g |\
[V:2] [G,2E,2]z |\
%5
[V:1] [d^F][^fd][af] |\
[V:2] C,C,C,   |\
%6
[V:1] dg/d/B/d/ |\
[V:2] [G,2B,,2]z |\
%7
[V:1] A/e/[d/B/][c/A/][B/G/][A/^F/] \
[V:2] C,D,D,, \
%8a
[V:1]|1 [g2d2B2G2]z :|2
[V:2]|1 G,,G,/=F,/E,/D,/ :|2
%8b
[V:1] [g2d2B2G2]z |:\
[V:2] G,,B,/G,/^F,/E,/ |:\
%9
[V:1] D/^F/A/d/^f/a/ |\
[V:2] D,2C, |\
%10
[V:1] g/b/g/d/B/G/ |\
[V:2] [D,2B,,2]z |\
%11
[V:1] e/c/G e |\
[V:2] [G,2C,2][G,C,] |\
%12
[V:1] [dB]g/b/d |\
[V:2] [G,2G,,2]G, |\
%13
[V:1] gec |\
[V:2] [E,/C,/]G,/[E,/C,/]G,/[E,/C,/]G,/ |\
%14
[V:1] (Gce) |\
[V:2] [E,2C,2][G,C,] |\
%15
[V:1] f/e/dg |\
[V:2] F,/E,/D,G, |\
%16
[V:1] c2z :|]
[V:2] C,G,,C,, :|]
